!!!OTL: Diexin dehua yaodui dang jiang
!!!ARE: Asia, China,ÿQinghai Minhe
!! I, 221
!!!SCT: C1853
!!!YEM: Copyright 1995, estate of Helmut Schaffrath.
**kern
*ICvox
*Ivox
*M2/4
*k[f#c#g#]
*A:
{4f#
=1
8e
8e
8f#
16a
16b
=2
8b
16f#
16a
8f#
8e
=3
8a
8f#
8b
8b
=4
2b}
=5
{8b
16b
16ee
8ee
8ff#
=6
16b
16ee
16f#
16a
16f#
16r
8a
=7
8b
8b
8.b
16ff#
=8
2ee
=9
8ee
4.r}
=10
{8r
16f#
16e
8f#
8a
=11
8b
8b
4b
=12
8.b
16ee
8ee
16ee
16ff#
=13
8b
8b
16b
16ee
16f#
16a
=14
8f#}
{16a
16a
8a
8a
=15
8f#
8a
8b
16f#
16a
=16
4f#
8.f#
16e
=17
4.e
8f#
=18
4e}
==
!!!AGN: Shange, Gushanling
!! Hui Han
!!!ONB: ESAC (Essen Associative Code) Database: SENGANSU
!!!AMT: simple duple
!!!AIN: vox
!!!EED: Helmut Schaffrath
!!!EEV: 1.0
*-
